X:141
T:14. THREE AROUND THREE (32 bar reels)
T:Rose Tree, The
R:Reel
O:England
Q:1/4=150
M:4/4
K:D
P:A
|:fe|\
"D"d2B2 "A"A2F2|"D"ABAF "F#m"A2(FA)|"D"d2d2 "A"e2de|"D"f2e2 "A"e2fe|\
"D"d2B2 "A"A2F2|"D"ABAF "F#m"A2(FA)|"D"d2cd "A7"e2de|"D"f2d2d2::
P:B
de|\
"D"f2e2 f2g2|a2ba g2f2|"Bm"e2b2 b2a2|b2e2 "A"e2(fe)|\
"D"d2B2 "A"A2F2|"D"ABAF "F#m"A2(FA)|"D"d2cd "A"e2de|"D"f2d2d2:|
